X:581
T:The basket of turf
T:The unfortunate rake
T:The creel of turf
T:Up Sligo
T:The lark's march
T:Castle jig
R:Jig
O:Ireland
B:O'Neill's 735- The basket of turf
B:O'Neill's 970- The unfortunate rake
B:Krassen O'Neill's 48- The unfortunate rake (Up Sligo)
D:Molloy, Peoples, Brady
S:O'Neill's 735
Z:Transcription:Bob Safranek, chords:Mike Long
M:6/8
L:1/8
K:G
E|\
"Em"EBB BAG|"D"FDF AGF|"Em"EBB "G"B^cd|"D"AGF "Em"E2E|\
"Em"EBB BAG|"D"FDF AGF|"G"GAB B^cd|"D"AGF "Em"E2:|
|:B|\
"Em"Bee efg|"D"dcB AGF|"Em"Eee efg|"Bm"f^df "Em"e2e|\
"Em"Eee efg|"D"dcB AGF|"G"GAB B^cd|"D"AGF "Em"E2:|
P:Castle jig ---------------
|:c|\
"Em"B2G B2G|"D"FAD FAD|"Em"B2G "G"B^cd|"D"AGF "Em"E2c|\
"Em"B2G B2G|"D"FAD FAD|"G"G3 GBd|"D"AGF "Em"E2:|
